!!!COM:	Bach, Johann Sebastian
!!!OMV:	Herzliebester Jesu, was hast du verbrochen
!!!OTL:	Herzliebester Jesu, was hast du verbrochen
**kern	**fb	**kern	**kern	**kern	**kern
*part5	*part5	*part4	*part3	*part2	*part1
*staff5	*	*staff4	*staff3	*staff2	*staff1
*I"Continuo	*	*I"Voice	*I"Voice	*I"Voice	*I"Voice
*I'Cont.	*	*I'V	*I'V	*I'V	*I'V
*clefF4	*	*clefF4	*clefGv2	*clefG2	*clefG2
*Trd0c0	*	*	*	*	*
*k[f#c#]	*	*k[f#c#]	*k[f#c#]	*k[f#c#]	*k[f#c#]
*M4/4	*	*M4/4	*M4/4	*M4/4	*M4/4
4D#X	6 5	4D#X	4f#	4a	4b
=2	=2	=2	=2	=2	=2
4E	.	4E	4e	4g	4b
4E#X	7 5	4E#X	4d	4g#X	4b
4F#	#	4F#	4c#	4f#	4a#X
4F#	.	4F#	4A#X	4c#	4f#
=3	=3	=3	=3	=3	=3
4G#X	6	4G#X	4e	4B	4b
4A#X	6 5	4A#X	4e	4f#	4cc#
4B	.	4B	8dL	4f#	4dd
.	.	.	8eJ	.	.
4B	.	4B	4f#	4b	4dd
=4	=4	=4	=4	=4	=4
4A#X	7 5	4A#X	4g	4cc#	4ee
4B	.	4B	4f#	4b	4dd
4F#;	#	4F#;	4f#;	4a#X;	4cc#;
4F#	.	4F#	4A#X	4f#	4cc#
=5	=5	=5	=5	=5	=5
4B	.	4B	4B	4f#	4dd
4A	.	4An	4c#	4an	4ee
4D	8	4D	8dL	4a	8ff#L
.	7	.	8c#J	.	8eeJ
8GL	.	8GL	4B	8bL	4dd
8F#J	.	8F#J	.	8aJ	.
=6	=6	=6	=6	=6	=6
8EL	.	8EL	4B	8gL	4gg
8F#J	.	8F#J	.	8aJ	.
8GL	6	8GL	4e	4b	4gg
8AJ	.	8AJ	.	.	.
4B	.	4B	8dL	4b	8ff#L
.	.	.	8c#J	.	8eeJ
8AL	6 4 2	8AL	4d	4b	4ff#
8G#XJ	.	8G#XJ	.	.	.
=7	=7	=7	=7	=7	=7
!!linebreak:original
2A	5 4	2A	4d	8eL	2ee
.	.	.	.	8f#J	.
.	3	.	4c#	4gn	.
4D;	.	4D;	4A;	4f#;	4dd;
4D	.	4D	4F#	4b	4dd
=8	=8	=8	=8	=8	=8
8EL	6	8EL	8G#XL	4e	4cc#
8F#J	.	8F#J	8A#XJ	.	.
4G	.	4G	4B	4d	4b
4C#	6	4C#	4E	4e	8anL
.	5	.	.	.	8gnJ
4D	.	4D	4An	8dL	8f#L
.	.	.	.	8eJ	8gJ
=9	=9	=9	=9	=9	=9
8dL	.	8dL	4d	4f#	4a
8cn	.	8cn	.	.	.
8B	7 5	8B	4d	4f#	4a
8AJ	.	8AJ	.	.	.
8GL	.	8GL	8dL	4g	4b
8F#	.	8F#	8eJ	.	.
8E	5 4 2	8E	4f#	4f#	4a
8D#XJ	.	8D#XJ	.	.	.
=10	=10	=10	=10	=10	=10
2E	9	2E	2B	8f#L	2g
.	.	.	.	8d#XJ	.
.	8	.	.	4e	.
4BB;	#	4BB;	4B;	4d#;	4f#;
4BB	n	4BB	4dn	4b	4ff#
=11	=11	=11	=11	=11	=11
4C#	7	4C#	4c#	8bL	4ee
.	#6\	.	.	8a#XJ	.
8DL	6	8DL	4F#	[4b	8ddL
8EJ	.	8EJ	.	.	8cc#J
2F#	5 4	2F#	4.f#	8bL]	2cc#
.	.	.	.	8g#XJ	.
.	#	.	.	4a#	.
.	.	.	8e	.	.
=12	=12	=12	=12	=12	=12
!!pagebreak:original
2.BB;	#	2.BB;	2.d#X;	2.f#;	2.b;
=||	=||	=||	=||	=||	=||
*-	*-	*-	*-	*-	*-
!!!system-decoration: s1,s2,s3,s4,s5
